!!!OTL: SOLL SICH DER MOND NICHT HELLER SCHEINEN
!!!ARE: Europa, Mitteleuropa, Deutschland, Rheinland, Siebengebirge
!!!SCT: E0819
!!!YEM: Copyright 1995, estate of Helmut Schaffrath.
**kern
*ICvox
*Ivox
*M3/4
*k[f#c#g#]
*f#:
{8c#
8f#
8g#
=1
4an
4g#
8b
8cc#
=2
8an
8g#
8f#}
{8f#
8an
8b
=3
4cc#
8an
8cc#
8b
8an
=4
4g#
8r}
{8g#
8cc#
8dd#
=5
4een
4cc#
8ddn
8cc#
=6
4b
8g#}
{8g#
8an
8b
=7
4cc#
4an
8g#
8an
=8
4f#
8r}
==
!!!AGN: Kilt - Lied
!!!ONB: ESAC (Essen Associative Code) Database: ERK2
!!!AMT: simple triple
!!!AIN: vox
!!!EED: Helmut Schaffrath
!!!EEV: 1.0
*-
